2017/images/schedule/coffee.svg

<?xml version="1.0" standalone="no"?>
<!-- Generator: Adobe Fireworks CS5, Export SVG Extension by Aaron Beall (http://fireworks.abeall.com) . Version: 0.6.1  -->
<!DOCTYPE svg PUBLIC "-//W3C//DTD SVG 1.1//EN" "http://www.w3.org/Graphics/SVG/1.1/DTD/svg11.dtd">
<svg id="Untitled-Page%201" viewBox="0 0 110 110" style="background-color:#ffffff00" version="1.1"
	xmlns="http://www.w3.org/2000/svg" xmlns:xlink="http://www.w3.org/1999/xlink" xml:space="preserve"
	x="0px" y="0px" width="110px" height="110px"
>
	<g id="Layer%201">
		<g>
			<path d="M 69.8476 64.4572 C 71.1051 62.1082 72.0818 59.2958 72.3079 56.0514 C 73.8302 56.3248 77.7545 57.3849 75.2691 60.8214 C 73.6003 63.1287 71.4496 64.074 69.8476 64.4572 ZM 59.0882 50.5012 L 54.784 50.5012 L 40.7139 50.5012 C 38.5315 50.5012 37.4404 52.4141 37.4404 52.4141 C 36.0764 65.531 47.2611 72.9098 47.2611 72.9098 L 54.784 72.9098 L 59.0882 72.9098 L 62.4222 72.9098 C 62.4222 72.9098 65.114 71.1341 67.6952 67.7773 C 70.3952 67.3001 74.5404 65.8365 77.6664 61.4323 C 82.056 55.2474 74.3779 53.6181 72.3158 53.2994 C 72.2975 53.0072 72.274 52.7124 72.243 52.4141 C 72.243 52.4141 71.1518 50.5012 68.9695 50.5012 L 59.0882 50.5012 Z" fill="#ffffff"/>
			<path d="M 59.7919 74.4085 L 50.4583 74.4085 L 37.0609 74.4085 C 36.5196 76.5038 39.7669 78 39.7669 78 L 50.4583 78 L 59.7919 78 L 70.4832 78 C 70.4832 78 73.7306 76.5038 73.1893 74.4085 L 59.7919 74.4085 Z" fill="#ffffff"/>
			<g>
				<path d="M 52.453 30.279 C 52.453 30.279 48.472 34.1048 48.7374 36.838 C 49.0028 39.5701 55.3725 41.2101 53.5147 43.3959 C 51.6568 45.5822 49.799 48.8617 49.799 48.8617 C 49.799 48.8617 55.1071 46.4025 56.6995 43.3959 C 58.2919 40.3903 55.1071 39.2972 52.9839 36.838 C 50.8607 34.3782 51.3914 33.8319 52.453 30.279 Z" fill="#ffffff"/>
				<path d="M 59.8761 27 C 59.8761 27 55.3506 31.3879 55.6524 34.523 C 55.954 37.6572 63.1948 39.5386 61.0828 42.0461 C 58.971 44.5536 56.8591 48.3149 56.8591 48.3149 C 56.8591 48.3149 62.8931 45.4938 64.7032 42.0461 C 66.5134 38.5979 62.8931 37.3441 60.4795 34.523 C 58.066 31.702 58.6693 31.0748 59.8761 27 Z" fill="#ffffff"/>
			</g>
		</g>
	</g>
</svg>

<svg style="background-color:#ffffff00" xmlns="http://www.w3.org/2000/svg" width="110" height="110"><path d="M69.848 64.457c1.257-2.349 2.234-5.161 2.46-8.406 1.522.274 5.446 1.334 2.961 4.77a9.25 9.25 0 0 1-5.421 3.636zm-10.76-13.956H40.714c-2.182 0-3.274 1.913-3.274 1.913-1.364 13.117 9.821 20.496 9.821 20.496h15.161s2.692-1.776 5.273-5.133c2.7-.477 6.845-1.94 9.971-6.345 4.39-6.185-3.288-7.814-5.35-8.133a21.636 21.636 0 0 0-.073-.885s-1.091-1.913-3.273-1.913h-9.882zm.704 23.908H37.06C36.52 76.504 39.767 78 39.767 78h30.716s3.248-1.496 2.706-3.591H59.792zm-7.339-44.13s-3.981 3.826-3.716 6.559c.266 2.732 6.636 4.372 4.778 6.558-1.858 2.186-3.716 5.466-3.716 5.466s5.308-2.46 6.9-5.466c1.593-3.006-1.592-4.099-3.715-6.558-2.123-2.46-1.593-3.006-.531-6.559zM59.876 27s-4.525 4.388-4.224 7.523c.302 3.134 7.543 5.016 5.43 7.523-2.111 2.508-4.223 6.269-4.223 6.269s6.034-2.821 7.844-6.269c1.81-3.448-1.81-4.702-4.224-7.523-2.413-2.821-1.81-3.448-.603-7.523z" fill="#fff"/></svg>
